assets/img/scroll.svg

<?xml version="1.0" encoding="UTF-8"?>
<svg width="18px" height="41px" viewBox="0 0 18 41" version="1.1" xmlns="http://www.w3.org/2000/svg" xmlns:xlink="http://www.w3.org/1999/xlink">
    <!-- Generator: Sketch 49 (51002) - http://www.bohemiancoding.com/sketch -->
    <title>scroll</title>
    <desc>Created with Sketch.</desc>
    <defs></defs>
    <g id="Page-1" stroke="none" stroke-width="1" fill="none" fill-rule="evenodd">
        <g id="Desktop-HD" transform="translate(-54.000000, -31.000000)" fill="#FF4343" fill-rule="nonzero">
            <g id="sidebar" transform="translate(0.000000, -1.000000)">
                <g id="scroll" transform="translate(54.000000, 32.000000)">
                    <path d="M12.301,35.301 L9.0002,38.59985 L5.6994,35.29905 C5.29901,34.89866 4.6994,34.89866 4.299,35.29905 C3.89861,35.69944 3.89861,36.29905 4.299,36.69945 L8.299,40.69945 C8.50017,40.90062 8.75017,41.00023 9.00015,41.00023 C9.25013,41.00023 9.50015,40.90062 9.69935,40.69945 L13.69935,36.69945 C14.09974,36.29906 14.09974,35.69945 13.69935,35.29905 C13.30091,34.90061 12.69935,34.90061 12.3009,35.301003 L12.301,35.301 Z" id="Shape"></path>
                    <path d="M13.699,29.801 C13.29861,29.40061 12.699,29.40061 12.2986,29.801 L8.99975,33.09985 L5.69895,29.79905 C5.29856,29.39866 4.69895,29.39866 4.29855,29.79905 C3.89816,30.19944 3.89816,30.79905 4.29855,31.19945 L8.29855,35.19945 C8.49972,35.40062 8.74972,35.50023 8.9997,35.50023 C9.24968,35.50023 9.4997,35.40062 9.6989,35.19945 L13.6989,31.19945 C14.09929,30.80101 14.09929,30.19945 13.6989,29.801 L13.699,29.801 Z" id="Shape"></path>
                    <path d="M18,18 L18,9 C18,4.0508 13.9492,0 9,0 C4.0508,0 0,4.0508 0,9 L0,18 C0,22.9492 4.0508,27 9,27 C13.9492,27 18,22.9492 18,18 Z M9,25 C5.1504,25 2,21.8496 2,18 L2,9 C2,5.1504 5.1504,2 9,2 C12.8496,2 16,5.1504 16,9 L16,18 C16,21.8496 12.8496,25 9,25 Z" id="Shape"></path>
                    <path d="M9,5.5 C8.4492,5.5 8,5.94922 8,6.5 L8,9.5 C8,10.0508 8.44922,10.5 9,10.5 C9.55078,10.5 10,10.05078 10,9.5 L10,6.5 C10,5.9492 9.55078,5.5 9,5.5 Z" id="Shape"></path>
                </g>
            </g>
        </g>
    </g>
</svg>

<svg width="18" height="41" xmlns="http://www.w3.org/2000/svg"><g fill="#FF4343" fill-rule="nonzero"><path d="M12.301 35.301l-3.3 3.299-3.302-3.301c-.4-.4-1-.4-1.4 0-.4.4-.4 1 0 1.4l4 4C8.5 40.901 8.75 41 9 41c.25 0 .5-.1.7-.3l4-4c.4-.4.4-1 0-1.401a.966.966 0 0 0-1.4.002h.001z"/><path d="M13.699 29.801c-.4-.4-1-.4-1.4 0l-3.3 3.299-3.3-3.301c-.4-.4-1-.4-1.4 0-.4.4-.4 1 0 1.4l4 4c.2.202.45.301.7.301.25 0 .5-.1.7-.3l4-4c.4-.399.4-1 0-1.399zM18 18V9c0-4.95-4.05-9-9-9S0 4.05 0 9v9c0 4.95 4.05 9 9 9s9-4.05 9-9zm-9 7c-3.85 0-7-3.15-7-7V9c0-3.85 3.15-7 7-7s7 3.15 7 7v9c0 3.85-3.15 7-7 7z"/><path d="M9 5.5c-.55 0-1 .45-1 1v3c0 .55.45 1 1 1s1-.45 1-1v-3c0-.55-.45-1-1-1z"/></g></svg>
